X: 1
T: Lead The Knave (aka The Wedding)
M: 4/4
L: 1/8
R: reel
K: Ador
B|AGEG AGEG|c2cA G3B|A2 cd edcB|ABcd e2 eg|
abag egdB|cAGA c3d|edcA GEcE|D2 EG A3:|
g|ageg agea|gede g3b|agea gbed|cAcd e2 eg|
abag egdB|cAGA c3d|edcA GEcE|D2 EG A3:|

